X:9
T:Rotsee-Juiz. 1990  Bb
T:Thomas Wieland  (* 8.11.1953)
T:Dirigenten-Notiz  Edi Gasser
C:Unterwalden (CH)
%%partsbox
%P:ABC
R:Naturjodel
M:3/4
L:1/8
K:Bb
[P:A] F2|B3D FB | d2c2B2 | A3c Ff | e3d cB | A3c AF | 
EF Af eA | B3d Ff | d3F dc | B3D FB | d2c2B2 | 
A3c Ff | e3d cB | A2cF Ac | f2 eF dc | (B6 | B2)z2 ||
L:1/8
[P:B] B>G | e3G eB | gfe2fe | d2FF Fd | B3F dB | c2FF Af | 
e2FF Ge | d2Fd dc | B4 B>G | e3G eB | gfe2fe | 
d2FF Fd | B3F (3Bdg | f3Fe2 | d2Fd dc | B6 | B4 ||
M:2/4
[P:C] DE | F>D FG | F2DF | B>F Bd | f>f ed | c>F E/F/A/c/ | 
f>c ed | B>A Be | d2DE | F>D FG | F2DF | B>F Bd | 
f>F ed | c>F E/F/A/c/ | f>c ed | B>F cf | B2 |]
W:
W:Reihenfolge: A-B-C
W:notiert Edi Gasser. Angaben: Thomas Wieland
W:UJV-Naturjodelsammlung: Code-Nr: 21-05
W:http://www.naturjodler.ch/code 21.htm  (AUDIO not yet, Sep 2018)
%Sep 14, 2018

